X: 08050
T: HOME JAMES!
C: Bob McQuillen 2 Feb 91
B: Bob's Note Book 8 #50
%R: hornpipe, reel
Z: 2021 John Chambers <jc:trillian.mit.edu>
M: C
L: 1/8
K: G
Bc \
| dedB cedc | BGDB, CEDC | B,G,B,D GBAG | F2A2 A2Bc |\
| dedB cedc | BGDB, CEDC | B,DGB dBAc | B2G2 G2 :|
|: Bc \
| dggf g2Bc | dedc Bcde | dggf g2ga | bgbg ageg |\
| dggf gedc | BdBG AGEG | DGBd gedc | B2G2 G2 :|
%%begintext align
%% Sarah Bauhan's
%% folks, Bill+Liz Bauhan, bought the Alexander James place in
%% Dublin ca 20 years ago, and they named their new home
%% (what else?!) "Home James!" Incidentally, noted artist Alexander
%% James was a good friend of Albert Quigley, great fiddler from Nelson,
%% N.H. Quig was awfully kind to a budding young dance musician,
%% as well as being a fine oil painter in his own right.
%%endtext

%%sep 1 1 500

%%sep 1 1 500

